src/assets/svg/envelope.svg

<?xml version="1.0" encoding="UTF-8"?>
<svg width="20px" height="16px" viewBox="0 0 20 16" version="1.1" xmlns="http://www.w3.org/2000/svg" xmlns:xlink="http://www.w3.org/1999/xlink">
    <!-- Generator: Sketch 50.2 (55047) - http://www.bohemiancoding.com/sketch -->
    <title>envelope</title>
    <desc>Created with Sketch.</desc>
    <defs></defs>
    <g id="Page-1" stroke="none" stroke-width="1" fill="none" fill-rule="evenodd">
        <g id="Artboard" transform="translate(-460.000000, -848.000000)" fill="#000000" fill-rule="nonzero">
            <g id="envelope" transform="translate(460.000000, 848.000000)">
                <path d="M20,5.15909091 L20,14.1818182 C20,14.6818182 19.8251488,15.1098485 19.4754464,15.4659091 C19.125744,15.8219697 18.7053571,16 18.2142857,16 L1.78571429,16 C1.29464286,16 0.874255952,15.8219697 0.524553571,15.4659091 C0.17485119,15.1098485 0,14.6818182 0,14.1818182 L0,5.15909091 C0.327380952,5.53030303 0.703125,5.85984848 1.12723214,6.14772727 C3.82068452,8.01136364 5.66964286,9.31818182 6.67410714,10.0681818 C7.09821429,10.3863636 7.44233631,10.6344697 7.70647321,10.8125 C7.97061012,10.9905303 8.32217262,11.1723485 8.76116071,11.3579545 C9.20014881,11.5435606 9.609375,11.6363636 9.98883929,11.6363636 L10.0111607,11.6363636 C10.390625,11.6363636 10.7998512,11.5435606 11.2388393,11.3579545 C11.6778274,11.1723485 12.0293899,10.9905303 12.2935268,10.8125 C12.5576637,10.6344697 12.9017857,10.3863636 13.3258929,10.0681818 C14.5907738,9.13636364 16.4434524,7.82954545 18.8839286,6.14772727 C19.3080357,5.85227273 19.6800595,5.52272727 20,5.15909091 Z M20,1.81818182 C20,2.41666667 19.8177083,2.98863636 19.453125,3.53409091 C19.0885417,4.07954545 18.6346726,4.54545455 18.0915179,4.93181818 C15.2938988,6.90909091 13.5528274,8.14015152 12.8683036,8.625 C12.7938988,8.6780303 12.6357887,8.79356061 12.3939732,8.97159091 C12.1521577,9.14962121 11.9512649,9.29356061 11.7912946,9.40340909 C11.6313244,9.51325758 11.437872,9.63636364 11.2109375,9.77272727 C10.984003,9.90909091 10.7700893,10.0113636 10.5691964,10.0795455 C10.3683036,10.1477273 10.1822917,10.1818182 10.0111607,10.1818182 L9.98883929,10.1818182 C9.81770833,10.1818182 9.63169643,10.1477273 9.43080357,10.0795455 C9.22991071,10.0113636 9.01599702,9.90909091 8.7890625,9.77272727 C8.56212798,9.63636364 8.3686756,9.51325758 8.20870536,9.40340909 C8.04873512,9.29356061 7.84784226,9.14962121 7.60602679,8.97159091 C7.36421131,8.79356061 7.20610119,8.6780303 7.13169643,8.625 C6.4546131,8.14015152 5.47991071,7.44886364 4.20758929,6.55113636 C2.93526786,5.65340909 2.17261905,5.11363636 1.91964286,4.93181818 C1.45833333,4.61363636 1.02306548,4.17613636 0.613839286,3.61931818 C0.204613095,3.0625 0,2.54545455 0,2.06818182 C0,1.47727273 0.154389881,0.984848485 0.463169643,0.590909091 C0.771949405,0.196969697 1.21279762,0 1.78571429,0 L18.2142857,0 C18.6979167,0 19.1164435,0.178030303 19.4698661,0.534090909 C19.8232887,0.890151515 20,1.31818182 20,1.81818182 Z" id="Shape"></path>
            </g>
        </g>
    </g>
</svg>

<svg width="20" height="16" xmlns="http://www.w3.org/2000/svg"><path d="M20 5.16v9.022c0 .5-.175.928-.525 1.284-.35.356-.77.534-1.26.534H1.784c-.49 0-.91-.178-1.26-.534A1.767 1.767 0 0 1 0 14.182V5.159c.327.371.703.7 1.127.989 2.694 1.863 4.543 3.17 5.547 3.92.424.318.768.566 1.032.745.265.178.616.36 1.055.545.44.186.848.278 1.228.278h.022c.38 0 .789-.092 1.228-.278.439-.186.79-.367 1.055-.546a26.41 26.41 0 0 0 1.032-.744c1.265-.932 3.117-2.238 5.558-3.92A6.19 6.19 0 0 0 20 5.159zm0-3.342c0 .599-.182 1.17-.547 1.716a5.357 5.357 0 0 1-1.361 1.398 9010.232 9010.232 0 0 0-5.224 3.693l-.474.347c-.242.178-.443.322-.603.431-.16.11-.353.233-.58.37-.227.136-.44.238-.642.307-.2.068-.387.102-.558.102H9.99c-.171 0-.357-.034-.558-.102-.201-.069-.415-.17-.642-.307-.227-.137-.42-.26-.58-.37-.16-.11-.361-.253-.603-.431l-.474-.347a552.825 552.825 0 0 0-2.924-2.074 514.527 514.527 0 0 1-2.288-1.62c-.462-.317-.897-.755-1.306-1.312C.204 3.062 0 2.545 0 2.07 0 1.476.154.984.463.59.772.197 1.213 0 1.786 0h16.428c.484 0 .902.178 1.256.534.353.356.53.784.53 1.284z" fill="#000" fill-rule="nonzero"/></svg>
